X:1
T:Title
%%score { 1 | ( 2 3 ) }
L:1/8
M:3/4
K:Ab
V:1 treble nm="Grand Piano"
V:2 bass 
V:3 bass 
V:1
 z2 z2[Q:1/4=100] [CE]2 | [CE]>[CE] [CE]3 [CA] | [CA][Ec] B2 Bc | d3 B cd |[M:2/4] [Ec]4 | %5
[M:1/4] [EG][GB] |[M:3/4] [GB]>[GB] [GB]3 [EG] | [FA][GB] [EG]2 [CA][Ec] | [Ec]>[Ec] [Ec]3 [CA] | %9
 Bc [CA]2 E2 | FF EA G2 |[M:2/4] [CA]4 |] %12
V:2
 z2 z2 [A,,A,]2 | [A,,A,]>[A,,A,] [A,,A,]3 [A,,E,] | z2 z2 .G,2 | [E,B,E]3 [E,G,E] [E,A,E][E,B,E] | %4
[M:2/4] [A,,A,]4 |[M:1/4] [E,B,]2 |[M:3/4] [E,B,]>[E,B,] [E,B,]3 [E,B,] | %7
 [B,,B,][B,,B,] [E,B,]2 [A,,A,]2 | [A,,A,]>[A,,A,] [A,,A,]3 [A,,E,] | [E,D][E,E] [A,,E,]2 [C,A,]2 | %10
 z2 .[A,C]2 z2 |[M:2/4] [A,,A,]4 |] %12
V:3
 x6 | x6 | [A,,E,][A,,A,] [E,G,E]2 [E,E]-[E,A,E] | x6 |[M:2/4] x4 |[M:1/4] x2 |[M:3/4] x6 | x6 | %8
 x6 | x6 | [D,A,D][D,A,D] E,-[E,CE] [E,B,D]2 |[M:2/4] x4 |] %12

